;FLAVOR:Marlin
;TIME:3956
;Filament used: 4.0928m
;Layer height: 0.3
;MINX:79.9
;MINY:90.7
;MINZ:0.3
;MAXX:140.1
;MAXY:129.3
;MAXZ:50.1
;Generated with Cura_SteamEngine 4.13.0
M140 S60
M105
M190 S60
M104 S200
M105
M109 S200
M82 ;absolute extrusion mode
G28 ;Home
G1 Z15.0 F2000 ;Move the platform
G92 E0
G92 E0
G1 F1500 E-6.5
;LAYER_COUNT:167
;LAYER:0
M107
M204 S1000
G0 F7500 X81.294 Y91.471 Z0.3
;TYPE:SKIRT
G1 F1500 E0
G1 X81.741 Y91.173 E0.0268
G1 X82.226 Y90.945 E0.05354
G1 X82.74 Y90.792 E0.08029
G1 X83.408 Y90.71 E0.11387
G1 X83.83 Y90.7 E0.13493
G1 X135.845 Y90.7 E2.72997
G1 X136.543 Y90.71 E2.7648
G1 X137.077 Y90.758 E2.79155
G1 X137.598 Y90.884 E2.81829
G1 X138.095 Y91.087 E2.84507
G1 X138.556 Y91.361 E2.87183
G1 X138.971 Y91.7 E2.89856
G1 X139.331 Y92.098 E2.92534
G1 X139.628 Y92.544 E2.95207
G1 X139.856 Y93.03 E2.97885
G1 X140.008 Y93.544 E3.00559
G1 X140.09 Y94.209 E3.03902
G1 X140.1 Y94.63 E3.06003
G1 X140.1 Y110.624 E3.85797
G1 X140.09 Y111.345 E3.89395
G1 X140.042 Y111.879 E3.9207
G1 X139.916 Y112.4 E3.94744
G1 X139.714 Y112.897 E3.9742
G1 X139.44 Y113.358 E4.00096
G1 X139.058 Y113.818 E4.03079
G1 X138.268 Y114.622 E4.08703
G1 X136.367 Y116.61 E4.22425
G1 X134.558 Y118.61 E4.3588
G1 X132.779 Y120.693 E4.49546
G1 X131.085 Y122.792 E4.63003
G1 X129.401 Y125.009 E4.76893
G1 X127.854 Y127.165 E4.90131
G1 X127.442 Y127.754 E4.93718
G1 X127.103 Y128.17 E4.96395
G1 X126.705 Y128.53 E4.99072
G1 X126.259 Y128.827 E5.01746
G1 X125.774 Y129.055 E5.04419
G1 X125.26 Y129.208 E5.07095
G1 X124.593 Y129.29 E5.10448
G1 X124.17 Y129.3 E5.12558
G1 X117.406 Y129.3 E5.46304
G1 X116.701 Y129.29 E5.49822
G1 X116.24 Y129.272 E5.52124
G1 X114.148 Y129.153 E5.62577
G1 X111.383 Y129.075 E5.76378
G1 X108.69 Y129.075 E5.89813
G1 X105.897 Y129.154 E6.03753
G1 X104.486 Y129.225 E6.10801
G1 X103.459 Y129.284 E6.15933
G1 X103.028 Y129.298 E6.18085
G1 X102.92 Y129.3 E6.18624
G1 X96.156 Y129.3 E6.52369
G1 X95.454 Y129.29 E6.55872
G1 X94.92 Y129.242 E6.58547
G1 X94.398 Y129.116 E6.61226
G1 X93.902 Y128.913 E6.639
G1 X93.441 Y128.639 E6.66575
G1 X93.025 Y128.3 E6.69253
G1 X92.581 Y127.789 E6.7263
G1 X92.211 Y127.274 E6.75794
G1 X91.322 Y125.999 E6.83548
G1 X89.67 Y123.767 E6.97402
G1 X88.016 Y121.66 E7.10766
G1 X86.26 Y119.548 E7.24469
G1 X84.459 Y117.503 E7.38064
G1 X82.6 Y115.508 E7.51669
G1 X81.248 Y114.138 E7.61271
G1 X80.913 Y113.789 E7.63685
G1 X80.571 Y113.375 E7.66364
G1 X80.295 Y112.916 E7.69036
G1 X80.09 Y112.42 E7.71714
G1 X79.961 Y111.9 E7.74386
G1 X79.912 Y111.402 E7.76883
G1 X79.9 Y110.957 E7.79104
G1 X79.9 Y94.925 E8.59088
G1 X79.909 Y94.26 E8.62406
G1 X79.957 Y93.726 E8.65081
G1 X80.083 Y93.205 E8.67755
G1 X80.285 Y92.708 E8.70432
G1 X80.558 Y92.247 E8.73104
G1 X80.897 Y91.831 E8.75782
G1 X81.294 Y91.471 E8.78455
G0 F7500 X81.68 Y91.683
G1 F1500 X82.117 Y91.428 E8.8098
G1 X82.588 Y91.244 E8.83502
G1 X83.082 Y91.138 E8.86023
G1 X83.419 Y91.11 E8.8771
G1 X83.83 Y91.1 E8.89761
G1 X135.839 Y91.1 E11.49235
G1 X136.537 Y91.11 E11.52718
G1 X137.04 Y91.157 E11.55238
G1 X137.53 Y91.283 E11.57763
G1 X137.994 Y91.485 E11.60287
G1 X138.42 Y91.757 E11.62809
G1 X138.798 Y92.092 E11.65329
G1 X139.118 Y92.483 E11.6785
G1 X139.373 Y92.92 E11.70374
G1 X139.556 Y93.391 E11.72895
G1 X139.663 Y93.885 E11.75416
G1 X139.69 Y94.22 E11.77093
G1 X139.7 Y94.63 E11.79139
G1 X139.7 Y110.618 E12.58904
G1 X139.69 Y111.339 E12.62501
G1 X139.643 Y111.843 E12.65027
G1 X139.517 Y112.332 E12.67546
G1 X139.316 Y112.796 E12.70069
G1 X139.044 Y113.223 E12.72594
G1 X138.773 Y113.538 E12.74668
G1 X137.983 Y114.342 E12.80291
G1 X136.098 Y116.311 E12.9389
G1 X134.241 Y118.365 E13.07705
G1 X132.48 Y120.428 E13.21237
G1 X130.754 Y122.566 E13.34946
G1 X129.09 Y124.756 E13.48668
G1 X127.504 Y126.967 E13.62243
G1 X127.114 Y127.525 E13.65639
G1 X126.793 Y127.915 E13.68159
G1 X126.414 Y128.25 E13.70683
G1 X125.987 Y128.521 E13.73206
G1 X125.522 Y128.721 E13.75731
G1 X125.032 Y128.845 E13.78253
G1 X124.581 Y128.89 E13.80514
G1 X124.17 Y128.9 E13.82565
G1 X117.412 Y128.9 E14.16281
G1 X116.707 Y128.89 E14.19799
G1 X116.206 Y128.87 E14.223
G1 X114.145 Y128.753 E14.32599
G1 X111.395 Y128.675 E14.46325
G1 X108.678 Y128.675 E14.5988
G1 X105.908 Y128.753 E14.73705
G1 X104.464 Y128.826 E14.80918
G1 X103.349 Y128.889 E14.8649
G1 X103.016 Y128.899 E14.88152
G1 X96.161 Y128.9 E15.22352
G1 X95.459 Y128.89 E15.25854
G1 X94.956 Y128.843 E15.28375
G1 X94.466 Y128.717 E15.30899
G1 X94.003 Y128.515 E15.33419
G1 X93.576 Y128.244 E15.35942
G1 X93.198 Y127.908 E15.38465
G1 X92.905 Y127.556 E15.4075
G1 X92.539 Y127.046 E15.43882
G1 X91.627 Y125.738 E15.51837
G1 X90.007 Y123.55 E15.6542
G1 X88.306 Y121.381 E15.79172
G1 X86.569 Y119.293 E15.92722
G1 X84.767 Y117.247 E16.06324
G1 X82.895 Y115.238 E16.20024
G1 X81.536 Y113.861 E16.29676
G1 X81.201 Y113.512 E16.3209
G1 X80.881 Y113.121 E16.3461
G1 X80.627 Y112.684 E16.37132
G1 X80.444 Y112.212 E16.39658
G1 X80.338 Y111.718 E16.42178
G1 X80.311 Y111.39 E16.4382
G1 X80.3 Y110.957 E16.45981
G1 X80.3 Y94.931 E17.25935
G1 X80.309 Y94.266 E17.29253
G1 X80.356 Y93.762 E17.31779
G1 X80.482 Y93.273 E17.34298
G1 X80.683 Y92.809 E17.36821
G1 X80.954 Y92.382 E17.39344
G1 X81.289 Y92.004 E17.41864
G1 X81.68 Y91.683 E17.44388
G1 F1500 E10.94388
;MESH:adapter_to_mount.obj
G0 F7500 X86.494 Y107.007
G0 X85.975 Y105.636
G0 X85.202 Y106.763
G0 X85.056 Y107.146
G0 X85.008 Y107.55
G0 X85.056 Y107.954
G0 X85.202 Y108.337
G0 X85.433 Y108.673
G0 X85.74 Y108.943
G0 X86.924 Y109.391
;TYPE:WALL-INNER
G1 F1500 E17.44388
G1 X87.357 Y109.284 E17.46613
G1 X87.752 Y109.077 E17.48838
G1 X88.089 Y108.78 E17.51079
G1 X88.342 Y108.412 E17.53307
G1 X88.501 Y107.993 E17.55543
G1 X88.554 Y107.55 E17.57769
G1 X88.501 Y107.107 E17.59994
G1 X88.342 Y106.688 E17.6223
G1 X88.089 Y106.32 E17.64458
G1 X87.752 Y106.023 E17.66699
G1 X87.357 Y105.816 E17.68924
G1 X86.924 Y105.709 E17.71149
G1 X86.476 Y105.709 E17.73385
G1 X86.043 Y105.816 E17.7561
G1 X85.648 Y106.023 E17.77835
G1 X85.311 Y106.32 E17.80076
G1 X85.058 Y106.688 E17.82304
G1 X84.899 Y107.107 E17.8454
G1 X84.846 Y107.55 E17.86765
G1 X84.899 Y107.993 E17.88991
G1 X85.058 Y108.412 E17.91227
G1 X85.311 Y108.78 E17.93455
G1 X85.648 Y109.077 E17.95696
G1 X86.043 Y109.284 E17.97921
G1 X86.476 Y109.391 E18.00146
G1 X86.924 Y109.391 E18.02381
G0 F7500 X86.875 Y108.991
;TYPE:WALL-OUTER
G1 F1500 X87.214 Y108.907 E18.04124
G1 X87.524 Y108.745 E18.05869
G1 X87.787 Y108.513 E18.07619
G1 X87.985 Y108.225 E18.09362
G1 X88.11 Y107.897 E18.11113
G1 X88.151 Y107.55 E18.12857
G1 X88.11 Y107.203 E18.146
G1 X87.985 Y106.875 E18.16351
G1 X87.787 Y106.587 E18.18095
G1 X87.524 Y106.355 E18.19844
G1 X87.214 Y106.193 E18.21589
G1 X86.875 Y106.109 E18.23332
G1 X86.525 Y106.109 E18.25078
G1 X86.186 Y106.193 E18.2682
G1 X85.876 Y106.355 E18.28565
G1 X85.613 Y106.587 E18.30315
G1 X85.415 Y106.875 E18.32059
G1 X85.29 Y107.203 E18.3381
G1 X85.249 Y107.55 E18.35553
G1 X85.29 Y107.897 E18.37296
G1 X85.415 Y108.225 E18.39048
G1 X85.613 Y108.513 E18.40791
G1 X85.876 Y108.745 E18.42541
G1 X86.186 Y108.907 E18.44286
G1 X86.525 Y108.991 E18.46028
G1 X86.875 Y108.991 E18.47775
G0 F7500 X87.069 Y108.943
G0 X87.173 Y109.37
G1 F1500 E11.97775
G0 F7500 X87.967 Y108.673
G0 X88.198 Y108.337
G0 X88.344 Y107.954
G0 X88.392 Y107.55
G0 X88.344 Y107.146
G0 X88.198 Y106.763
G0 X86.948 Y105.518
G0 X86.77 Y106.973
G0 X86.77 Y98.627
G0 X86.948 Y100.081
G0 X86.924 Y99.891
;TYPE:WALL-INNER
G1 F1500 E18.47775
G1 X87.357 Y99.784 E18.5
G1 X87.752 Y99.577 E18.52225
G1 X88.089 Y99.28 E18.54466
G1 X88.342 Y98.912 E18.56694
G1 X88.501 Y98.493 E18.5893
G1 X88.554 Y98.05 E18.61155
G1 X88.501 Y97.607 E18.63381
G1 X88.342 Y97.188 E18.65617
G1 X88.089 Y96.82 E18.67845
G1 X87.752 Y96.523 E18.70086
G1 X87.357 Y96.316 E18.72311
G1 X86.924 Y96.209 E18.74536
G1 X86.476 Y96.209 E18.76771
G1 X86.043 Y96.316 E18.78997
G1 X85.648 Y96.523 E18.81222
G1 X85.311 Y96.82 E18.83463
G1 X85.058 Y97.188 E18.85691
G1 X84.899 Y97.607 E18.87926
G1 X84.846 Y98.05 E18.90152
G1 X84.899 Y98.493 E18.92378
G1 X85.058 Y98.912 E18.94614
G1 X85.311 Y99.28 E18.96842
G1 X85.648 Y99.577 E18.99083
G1 X86.043 Y99.784 E19.01308
G1 X86.476 Y99.891 E19.03533
G1 X86.924 Y99.891 E19.05768
G0 F7500 X86.875 Y99.491
;TYPE:WALL-OUTER
G1 F1500 X87.214 Y99.407 E19.07511
G1 X87.524 Y99.245 E19.09256
G1 X87.787 Y99.013 E19.11005
G1 X87.985 Y98.725 E19.12749
G1 X88.11 Y98.397 E19.145
G1 X88.151 Y98.05 E19.16244
G1 X88.11 Y97.703 E19.17987
G1 X87.985 Y97.375 E19.19738
G1 X87.787 Y97.087 E19.21482
G1 X87.524 Y96.855 E19.23231
G1 X87.214 Y96.693 E19.24976
G1 X86.875 Y96.609 E19.26719
G1 X86.525 Y96.609 E19.28465
G1 X86.186 Y96.693 E19.30207
G1 X85.876 Y96.855 E19.31952
G1 X85.613 Y97.087 E19.33702
G1 X85.415 Y97.375 E19.35446
G1 X85.29 Y97.703 E19.37197
G1 X85.249 Y98.05 E19.3894
G1 X85.29 Y98.397 E19.40683
G1 X85.415 Y98.725 E19.42435
G1 X85.613 Y99.013 E19.44178
G1 X85.876 Y99.245 E19.45928
G1 X86.186 Y99.407 E19.47673
G1 X86.525 Y99.491 E19.49415
G1 X86.875 Y99.491 E19.51161
G0 F7500 X87.069 Y99.443
G0 X87.173 Y99.87
G1 F1500 E13.01161
G0 F7500 X88.512 Y99.001
G0 X87.216 Y98.318
G0 X132.784 Y98.318
G0 X131.488 Y99.001
G0 X133.076 Y99.891
;TYPE:WALL-INNER
G1 F1500 E19.51161
G1 X133.524 Y99.891 E19.53397
G1 X133.957 Y99.784 E19.55622
G1 X134.352 Y99.577 E19.57847
G1 X134.689 Y99.28 E19.60088
G1 X134.942 Y98.912 E19.62316
G1 X135.101 Y98.493 E19.64552
G1 X135.154 Y98.05 E19.66777
G1 X135.101 Y97.607 E19.69003
G1 X134.942 Y97.188 E19.71239
G1 X134.689 Y96.82 E19.73467
G1 X134.352 Y96.523 E19.75708
G1 X133.957 Y96.316 E19.77933
G1 X133.524 Y96.209 E19.80158
G1 X133.076 Y96.209 E19.82393
G1 X132.643 Y96.316 E19.84619
G1 X132.248 Y96.523 E19.86844
G1 X131.911 Y96.82 E19.89085
G1 X131.658 Y97.188 E19.91313
G1 X131.499 Y97.607 E19.93548
G1 X131.446 Y98.05 E19.95774
G1 X131.499 Y98.493 E19.98
G1 X131.658 Y98.912 E20.00236
G1 X131.911 Y99.28 E20.02464
G1 X132.248 Y99.577 E20.04705
G1 X132.643 Y99.784 E20.0693
G1 X133.076 Y99.891 E20.09155
G0 F7500 X133.125 Y99.491
;TYPE:WALL-OUTER
G1 F1500 X133.475 Y99.491 E20.10901
G1 X133.814 Y99.407 E20.12644
G1 X134.124 Y99.245 E20.14389
G1 X134.387 Y99.013 E20.16138
G1 X134.585 Y98.725 E20.17882
G1 X134.71 Y98.397 E20.19633
G1 X134.751 Y98.05 E20.21377
G1 X134.71 Y97.703 E20.2312
G1 X134.585 Y97.375 E20.24871
G1 X134.387 Y97.087 E20.26615
G1 X134.124 Y96.855 E20.28364
G1 X133.814 Y96.693 E20.30109
G1 X133.475 Y96.609 E20.31852
G1 X133.125 Y96.609 E20.33598
G1 X132.786 Y96.693 E20.3534
G1 X132.476 Y96.855 E20.37085
G1 X132.213 Y97.087 E20.38835
G1 X132.015 Y97.375 E20.40579
G1 X131.89 Y97.703 E20.4233
G1 X131.849 Y98.05 E20.44073
G1 X131.89 Y98.397 E20.45816
G1 X132.015 Y98.725 E20.47568
G1 X132.213 Y99.013 E20.49311
G1 X132.476 Y99.245 E20.51061
G1 X132.786 Y99.407 E20.52806
G1 X133.125 Y99.491 E20.54548
G0 F7500 X133.325 Y99.491
G0 X133.325 Y99.931
G1 F1500 E14.04548
G0 F7500 X133.076 Y100.081
G0 X133.23 Y98.627
G0 X133.23 Y106.973
G0 X133.076 Y105.519
G0 X132.033 Y106.427
G0 X131.802 Y106.763
G0 X131.656 Y107.146
G0 X131.608 Y107.55
G0 X131.656 Y107.954
G0 X131.802 Y108.337
G0 X132.033 Y108.673
G0 X133.076 Y109.391
;TYPE:WALL-INNER
G1 F1500 E20.54548
G1 X133.524 Y109.391 E20.56783
G1 X133.957 Y109.284 E20.59009
G1 X134.352 Y109.077 E20.61234
G1 X134.689 Y108.78 E20.63475
G1 X134.942 Y108.412 E20.65703
G1 X135.101 Y107.993 E20.67938
G1 X135.154 Y107.55 E20.70164
G1 X135.101 Y107.107 E20.7239
G1 X134.942 Y106.688 E20.74626
G1 X134.689 Y106.32 E20.76854
G1 X134.352 Y106.023 E20.79095
G1 X133.957 Y105.816 E20.8132
G1 X133.524 Y105.709 E20.83545
G1 X133.076 Y105.709 E20.8578
G1 X132.643 Y105.816 E20.88006
G1 X132.248 Y106.023 E20.9023
G1 X131.911 Y106.32 E20.92471
G1 X131.658 Y106.688 E20.94699
G1 X131.499 Y107.107 E20.96935
G1 X131.446 Y107.55 E20.99161
G1 X131.499 Y107.993 E21.01387
G1 X131.658 Y108.412 E21.03623
G1 X131.911 Y108.78 E21.05851
G1 X132.248 Y109.077 E21.08092
G1 X132.643 Y109.284 E21.10317
G1 X133.076 Y109.391 E21.12542
G0 F7500 X133.125 Y108.991
;TYPE:WALL-OUTER
G1 F1500 X133.475 Y108.991 E21.14288
G1 X133.814 Y108.907 E21.16031
G1 X134.124 Y108.745 E21.17776
G1 X134.387 Y108.513 E21.19525
G1 X134.585 Y108.225 E21.21269
G1 X134.71 Y107.897 E21.2302
G1 X134.751 Y107.55 E21.24763
G1 X134.71 Y107.203 E21.26507
G1 X134.585 Y106.875 E21.28258
G1 X134.387 Y106.587 E21.30002
G1 X134.124 Y106.355 E21.31751
G1 X133.814 Y106.193 E21.33496
G1 X133.475 Y106.109 E21.35239
G1 X133.125 Y106.109 E21.36985
G1 X132.786 Y106.193 E21.38727
G1 X132.476 Y106.355 E21.40472
G1 X132.213 Y106.587 E21.42222
G1 X132.015 Y106.875 E21.43966
G1 X131.89 Y107.203 E21.45717
G1 X131.849 Y107.55 E21.4746
G1 X131.89 Y107.897 E21.49203
G1 X132.015 Y108.225 E21.50955
G1 X132.213 Y108.513 E21.52698
G1 X132.476 Y108.745 E21.54448
G1 X132.786 Y108.907 E21.56193
G1 X133.125 Y108.991 E21.57935
G0 F7500 X133.325 Y108.991
G0 X133.325 Y109.431
G1 F1500 E15.07935
G0 F7500 X132.575 Y109.464
G0 X132.575 Y110.88
G0 X124.072 Y110.872
G0 X123.718 Y124.918
G0 X117.532 Y124.918
G0 X117.532 Y123.782
G0 X120.1 Y123.6
;TYPE:WALL-INNER
G1 F1500 E21.57935
G1 X120.1 Y118.7 E21.82381
G1 X99.9 Y118.7 E22.8316
G1 X99.9 Y123.6 E23.07606
G1 X102.65 Y123.6 E23.21326
G1 X102.65 Y125.1 E23.28809
G1 X96.1 Y125.1 E23.61487
G1 X96.1 Y110.7 E24.33329
G1 X84.1 Y110.7 E24.93197
G1 X84.1 Y94.9 E25.72024
G1 X135.9 Y94.9 E28.30455
G1 X135.9 Y110.7 E29.09282
G1 X123.9 Y110.7 E29.6915
G1 X123.9 Y125.1 E30.40992
G1 X117.35 Y125.1 E30.7367
G1 X117.35 Y123.6 E30.81153
G1 X120.1 Y123.6 E30.94873
G0 F7500 X119.7 Y123.2
;TYPE:WALL-OUTER
G1 F1500 X119.7 Y119.1 E31.15328
G1 X100.3 Y119.1 E32.12115
G1 X100.3 Y123.2 E32.3257
G1 X103.05 Y123.2 E32.4629
G1 X103.05 Y125.5 E32.57765
G1 X95.7 Y125.5 E32.94434
G1 X95.7 Y111.1 E33.66276
G1 X83.7 Y111.1 E34.26144
G1 X83.7 Y94.5 E35.08962
G1 X136.3 Y94.5 E37.71384
G1 X136.3 Y111.1 E38.54202
G1 X124.3 Y111.1 E39.1407
G1 X124.3 Y125.5 E39.85912
G1 X116.95 Y125.5 E40.22582
G1 X116.95 Y123.2 E40.34056
G1 X119.7 Y123.2 E40.47776
G0 F7500 X119.7 Y123
G0 X120.14 Y123
G0 X120.24 Y123.74
G0 X120.49 Y123.99
;TYPE:SKIN
G1 F1500 X120.49 Y118.31 E40.76114
G1 X99.51 Y118.31 E41.80783
G1 X99.51 Y123.99 E42.09121
G1 X102.26 Y123.99 E42.22841
G1 X102.26 Y124.71 E42.26433
G1 X96.49 Y124.71 E42.5522
G1 X96.49 Y110.31 E43.27062
G1 X84.49 Y110.31 E43.8693
G1 X84.49 Y107.857 E43.99168
G1 X84.517 Y108.087 E44.00323
G1 X84.711 Y108.594 E44.03031
G1 X85.017 Y109.041 E44.05734
G1 X85.426 Y109.401 E44.08452
G1 X85.904 Y109.651 E44.11144
G1 X86.429 Y109.781 E44.13842
G1 X86.971 Y109.781 E44.16546
G1 X87.496 Y109.651 E44.19244
G1 X87.974 Y109.401 E44.21936
G1 X88.383 Y109.041 E44.24654
G1 X88.689 Y108.594 E44.27357
G1 X88.883 Y108.087 E44.30065
G1 X88.946 Y107.55 E44.32762
G1 X88.883 Y107.013 E44.3546
G1 X88.689 Y106.506 E44.38168
G1 X88.383 Y106.059 E44.40871
G1 X87.974 Y105.699 E44.43589
G1 X87.496 Y105.449 E44.4628
G1 X86.971 Y105.319 E44.48979
G1 X86.429 Y105.319 E44.51683
G1 X85.904 Y105.449 E44.54381
G1 X85.426 Y105.699 E44.57072
G1 X85.017 Y106.059 E44.59791
G1 X84.711 Y106.506 E44.62493
G1 X84.517 Y107.013 E44.65201
G1 X84.49 Y107.243 E44.66357
G1 X84.49 Y98.357 E45.10689
G1 X84.517 Y98.587 E45.11845
G1 X84.711 Y99.094 E45.14553
G1 X85.017 Y99.541 E45.17255
G1 X85.426 Y99.901 E45.19974
G1 X85.904 Y100.151 E45.22665
G1 X86.429 Y100.281 E45.25363
G1 X86.971 Y100.281 E45.28067
G1 X87.496 Y100.151 E45.30766
G1 X87.974 Y99.901 E45.33457
G1 X88.383 Y99.541 E45.36175
G1 X88.689 Y99.094 E45.38878
G1 X88.883 Y98.587 E45.41586
G1 X88.946 Y98.05 E45.44284
G1 X88.883 Y97.513 E45.46981
G1 X88.689 Y97.006 E45.49689
G1 X88.383 Y96.559 E45.52392
G1 X87.974 Y96.199 E45.5511
G1 X87.496 Y95.949 E45.57802
G1 X86.971 Y95.819 E45.605
G1 X86.429 Y95.819 E45.63204
G1 X85.904 Y95.949 E45.65902
G1 X85.426 Y96.199 E45.68594
G1 X85.017 Y96.559 E45.71312
G1 X84.711 Y97.006 E45.74014
G1 X84.517 Y97.513 E45.76723
G1 X84.49 Y97.743 E45.77878
G1 X84.49 Y95.29 E45.90116
G1 X135.51 Y95.29 E48.44656
G1 X135.51 Y97.743 E48.56894
G1 X135.483 Y97.513 E48.58049
G1 X135.289 Y97.006 E48.60758
G1 X134.983 Y96.559 E48.6346
G1 X134.574 Y96.199 E48.66179
G1 X134.096 Y95.949 E48.6887
